!!!OTL: Des Bauern Gabe (3-50), S. 145
!!!id: P1022
**kern
*clefG2
*k[b-]
*F:
{4c
=1
4f
4f
8f
8f
4g
=2
8.a
16a
8a
8a
4a
8f}
=3
{8f
=4
4.g
8a
4g
8f
8d
=5
4c
4cc
4cc}
=6
{8cc
8cc
=7
4cc
8.a
16b-
4cc}
4r
=8
{8f
8f
8f
8f
8b-
8b-
8b-
8b-
=9
4dd
4dd
4cc}
4r
=10
{8b-
8b-
8b-
8b-
8a
8a
8a
8a
=11
4cc
4cc
4f}
==
*-
!!!minrhy: 16
!!!meters: 4/4 ]  ZZ[5
!!!cut: Des Bauern Gabe (3-50), S. 145
!!!reg: Lothringen
!!!trd: PINCK, Louis: Verklingende Weisen, Bd3, Metz 1933
!!!rhy1: X__  X__X__X_X_X__  X_.XX_X_X__X_
!!!rhy2: X_  X__.X_X__X_X_  X__X__X__
!!!key: P1022  16  F 4/4 ]  ZZ[5
!!!mod: SECHSTONSKALA DUR ?]  AMBITUS[9
!!!kad: 15551
!!!akz: 1133_22-55_55_1465_4351_
!!!fot: 'a__b__c__d__e__
!!!for: 'a__b__c__d__dv_
!!!fok: '^a_~a_-__/__\__
!! PHRAS[GEMISCHTTAKTIG]
!!!fkt: Heirat?, Mitgift?
!! LOTH VKL
!! PR[2] 2K[5] 2G[20] 3K[0] 3G[5] 4A[10] 4Ü[0] 5A[5] 6K[0] 6G[0]
!! 7K[0] 7G[0] 8A[0] MEHR[0] SI[44] ABS[41] SR[24] SP[20]
!! ST[18] 2k[10] 2g[32] 3k[0] 3g[5] 4d[7] 4ü[0] 5d[0] 6k[0] 6g[0]
!! 7k[0] 7g[0] 8d[0] mehr[0] si[54] dm[-10] sr[41] sp[12]
!! 1F[74] 2F[26] 3F[0] 4F[0] LF[0] 2P[0] 3P[0] 4P[0] TRI[0] DF[2] AB[43]
!! TF[0] U3K[0] U3[0] U4[0] U4Ü[0] U5[7] U6K[0] U6[5] U7K[0] U7[5]
!! N1[17] N2K[0] N2[26] N3K[0] N3[10] N4[2] N4Ü[5] N5[19] N6K[0] N6[5]
!!!n7k: 0] N7[0] O1[0] O2K[0] O2[0] O3K[0] O3[0] HÖ[0
